X:43
T:New Century
Z: id:dc-hornpipe-39
M:C|
L:1/8
K:G Major
Bc|dGGF GBdB|cA=FE FGAc|BGGF GBdf|gbaf g2 (3gfe|!
dedB G2AB|cecA =F2GA|BGgd ecAF|AGGF G2:|!
GA|Bcde =fdcA|dDEF GFGA|Bcde =fdge|afd^c d2 (3def|!
gdBG ecAF|GFGB AGFE|DFAB cedF|AGGF G2:|!